content/_snippets/hardware/power-source/image.svg

<svg xmlns="http://www.w3.org/2000/svg" width="171" height="342" fill="none" viewBox="0 0 171 342"><path fill="#2c353a" d="M170.73 114.65H0v219.26c0 4.42 3.58 8 8 8h154.73c4.42 0 8-3.58 8-8z"/><path fill="#f39c12" d="M162.73 19.24H8c-4.42 0-8 3.58-8 8v87.41h170.73V27.24c0-4.42-3.58-8-8-8"/><path fill="#2c353a" d="M55.48 62.82H29.89v8.25h25.59zM132.19 71.07h8.65v-8.25h-8.65v-8.68h-8.27v8.68h-8.67v8.25h8.67v8.68h8.27z"/><path fill="#c9d2d2" d="M58.5 0H26.86c-4.42 0-8 3.58-8 8v11.24H66.5V8c0-4.42-3.58-8-8-8M138.14 0h-20.19c-4.42 0-8 3.58-8 8v11.24h36.19V8c0-4.42-3.58-8-8-8"/></svg>

<svg width="171" height="342" viewBox="0 0 171 342" fill="none" xmlns="http://www.w3.org/2000/svg">
<path d="M170.73 114.65H0V333.91C0 338.33 3.58 341.91 8 341.91H162.73C167.15 341.91 170.73 338.33 170.73 333.91V114.65Z" fill="#2C353A"/>
<path d="M162.73 19.24H8C3.58 19.24 0 22.82 0 27.24V114.65H170.73V27.24C170.73 22.82 167.15 19.24 162.73 19.24Z" fill="#F39C12"/>
<path d="M55.48 62.8201H29.89V71.0701H55.48V62.8201Z" fill="#2C353A"/>
<path d="M132.19 71.07H140.84V62.82H132.19V54.14H123.92V62.82H115.25V71.07H123.92V79.75H132.19V71.07Z" fill="#2C353A"/>
<path d="M58.5 0H26.86C22.44 0 18.86 3.58 18.86 8V19.24H66.5V8C66.5 3.58 62.92 0 58.5 0Z" fill="#C9D2D2"/>
<path d="M138.14 0H117.95C113.53 0 109.95 3.58 109.95 8V19.24H146.14V8C146.14 3.58 142.56 0 138.14 0Z" fill="#C9D2D2"/>
</svg>
